X:1
T:Three Around Three
M:4/4
R:Reel
K:G
L:1/8
d2 BA G2 G2 | A2 BA G2 D2 | EDEF G2 AB | c2 B2 B2 A2 |
d2 BA G2 G2 | A2 BA G2 D2 | EDEF G2 Ac | BGAF G4:|
d2 ef gfed | e2 e2 e3 e| d2 B2 B2 AG | FGAB A4|
d2 ef gfed | e2 e2 e3 D| ef g2 fgaf | g2 b2 g4:|
